assets/assets/svg/donak_grey_border.svg

<svg fill="none" height="19" viewBox="0 0 18 19" width="18" xmlns="http://www.w3.org/2000/svg"><g stroke="#f6f6f8" stroke-miterlimit="10" stroke-width="1.2"><path d="m8.98763 18.1541c4.41147 0 7.98767-3.4043 7.98767-7.6037 0-4.19936-3.5762-7.60362-7.98767-7.60362-4.41145 0-7.98763 3.40426-7.98763 7.60362 0 4.1994 3.57618 7.6037 7.98763 7.6037z" fill="#1e4437"/><path d="m12.4662 3.68262c.3864 1.35296 1.9321 6.74518-3.54696 8.23268-3.99736 1.0849-3.20855 7.3443 2.66496 5.7841 1.5009-.4819 2.8166-1.3795 3.7788-2.5772.9622-1.1978 1.5272-2.6416 1.6226-4.1467.0954-1.50511-.2831-3.00312-1.0871-4.30231-.804-1.2992-1.9969-2.34036-3.426-2.99057z" fill="#009060"/><path d="m8.98777 11.8384c2.24103 0 4.05773-2.44345 4.05773-5.45755s-1.8167-5.45751-4.05773-5.45751c-2.24105 0-4.05778 2.44341-4.05778 5.45751s1.81673 5.45755 4.05778 5.45755z" fill="#02d06c"/></g></svg>

<svg width="18" height="19" viewBox="0 0 18 19" fill="none" xmlns="http://www.w3.org/2000/svg">
<path d="M8.98763 18.1541C13.3991 18.1541 16.9753 14.7498 16.9753 10.5504C16.9753 6.35104 13.3991 2.94678 8.98763 2.94678C4.57618 2.94678 1 6.35104 1 10.5504C1 14.7498 4.57618 18.1541 8.98763 18.1541Z" fill="#1E4437" stroke="#F6F6F8" stroke-width="1.2" stroke-miterlimit="10"/>
<path d="M12.4662 3.68262C12.8526 5.03558 14.3983 10.4278 8.91924 11.9153C4.92188 13.0002 5.71069 19.2596 11.5842 17.6994C13.0851 17.2175 14.4008 16.3199 15.363 15.1222C16.3252 13.9244 16.8902 12.4806 16.9856 10.9755C17.081 9.47039 16.7025 7.97238 15.8985 6.67319C15.0945 5.37399 13.9016 4.33283 12.4725 3.68262H12.4662Z" fill="#009060" stroke="#F6F6F8" stroke-width="1.2" stroke-miterlimit="10"/>
<path d="M8.98777 11.8384C11.2288 11.8384 13.0455 9.39495 13.0455 6.38085C13.0455 3.36675 11.2288 0.92334 8.98777 0.92334C6.74672 0.92334 4.92999 3.36675 4.92999 6.38085C4.92999 9.39495 6.74672 11.8384 8.98777 11.8384Z" fill="#02D06C" stroke="#F6F6F8" stroke-width="1.2" stroke-miterlimit="10"/>
</svg>
